X: 256
T:Red Stocking
% Nottingham Music Database
S:Sam Sherry via Marlene
M:6/8
K:G
|:d|"Em"gaa bge|"Em"gaa bge|"D"dBA ABA|"D"dBA Add|
"Em"gaa bge|"Em"gaa bge|"G"dBG GAG|[1"G"dBG "D"Gd:|[2 "G"dBG "D"Gdd|
"Em"efe edB|"Em"def gfe|"D"dBA ABA|"D"dBA Add|
"Em"efe edB|"Em"def gfe|"G"dBG GAG|"G"dBG "D"Gdd:|
"C"cec "G"BdB|"D"AGA "Em"BGE|"D"dBA ABA|"D"dBA Add|
"C"cec "G"BdB|"D"AGA "Em"BGE|"G"dBG GAG|"G"dBG "D"Gdd:|<end>
<start>
